;Sliced by ideaMaker 4.3.2.6470, 2023-02-28 12:51:05 UTC-0600
;Dimension: 250.000 200.000 200.000 0.400
;Plate Shape: 0
;Origin Center: 0
;Extruder Offset #1: 25.000 0.000
;Filament Diameter #1: 1.750
;Filament Diameter #2: 1.750
;Filament Compensation #1: 100.00
;Filament Compensation #2: 90.00
;Filament Density #1: 1240.00
;Filament Density #2: 1240.00
;Filament Type #1: PETG
;Filament Type #2: 
;Filament Name #1: [CraftBot] PETG 1.75mm-copy
;Filament Name #2: 
;Firmware: Marlin
;Bounding Box: 119.268 142.732 92.502 130.962 0.000 38.050
;Model Gap: 0.000

M140 S75 ;start heating bed
M109 S250 ;start heating T0
M4002 P1 ; set heat program 1
M1203 A88 D66 F1200; set higher accel and decel
G28 X0 Y0 ; home XY
G28 Z0 ; home Z
G91 ; set relative movements
G0 F100 ; speed 100mm/sec
G0 E5 ; extrude 5mm of filament
G90 ;absolute movements
G0 X8 ; account for Craftbot offset
; -- START GCODE --
M140 S75 ;start heating bed
M109 S250 ;start heating T0
M4002 P1 ;set heat program 1
M1203 A88 D66 F1200 ;set higher accel and decel
G28 X0 Y0 ;home XY
G28 Z0 ;home Z
G91 ;set relative movements
G0 F100 ;speed 100mm/sec
G0 E20 ;extrude 20mm of filament
G90 ;absolute movements
G0 X8 ;account for Craftbot offset
G92 X0 Y0 ;set new X and Y
; -- end of START GCODE --
;end of Start GCode
;TOTAL_NUM: 2
;PRINTING_TIME: 0
;REMAINING_TIME: 2861
;LAYER:0
;Z:0.300
;HEIGHT:0.300
M106 S0
;PRINTING: fitting_for_dc_motor_shaft.STL
;PRINTING_ID: 0
G1 F1500 E-1.0000
G0 F6000 X129.732 Y93.511
G0 F300 Z0.300
;TYPE:WALL-INNER
;WIDTH:0.560
G1 F1500 E0.0000
G1 F1500 X129.654 Y93.962 E0.0320
G1 X129.679 Y94.262 E0.0530
G1 X129.819 Y94.662 E0.0826
G1 X130.246 Y95.182 E0.1296
G1 X129.801 Y95.340 E0.1626
G1 X129.374 Y95.578 E0.1967
G1 X128.988 Y95.885 E0.2312
G1 X128.661 Y96.256 E0.2657
G1 X128.402 Y96.673 E0.3000
G1 X128.208 Y97.146 E0.3357
G1 X128.042 Y97.163 E0.3474
G1 X127.995 Y97.094 E0.3532
G1 X127.771 Y96.896 E0.3741
G1 X127.397 Y96.708 E0.4033
G1 X126.943 Y96.648 E0.4353
G1 X126.667 Y96.708 E0.4550
G1 X126.559 Y96.582 E0.4666
G1 X126.758 Y96.075 E0.5047
G1 X126.986 Y95.635 E0.5393
G1 X127.260 Y95.221 E0.5739
G1 X127.577 Y94.840 E0.6086
G1 X127.932 Y94.494 E0.6432
G1 X128.322 Y94.187 E0.6779
G1 X128.743 Y93.925 E0.7125
G1 X129.188 Y93.708 E0.7471
G1 X129.732 Y93.511 E0.7875
G1 F1500 E-0.2125
G0 F6000 X129.493 Y93.002
;TYPE:WALL-OUTER
;WIDTH:0.560
G1 F1500 E0.7875
G1 F1500 X130.033 Y92.871 E0.8263
G1 X130.583 Y92.797 E0.8651
G1 X131.139 Y92.782 E0.9039
G1 X131.693 Y92.827 E0.9427
G1 X132.239 Y92.929 E0.9815
G1 X132.771 Y93.090 E1.0203
G1 X133.282 Y93.306 E1.0591
G1 X133.768 Y93.575 E1.0979
G1 X134.223 Y93.895 E1.1367
G1 X134.641 Y94.260 E1.1755
G1 X135.018 Y94.669 E1.2144
G1 X135.349 Y95.115 E1.2531
G1 X135.631 Y95.593 E1.2919
G1 X135.873 Y96.133 E1.3332
G1 X136.072 Y96.769 E1.3798
G1 X136.153 Y97.168 E1.4082
G1 X136.212 Y97.722 E1.4471
G1 X136.212 Y98.278 E1.4860
G1 X136.153 Y98.830 E1.5247
G1 X136.036 Y99.373 E1.5635
G1 X135.861 Y99.901 E1.6024
G1 X135.631 Y100.407 E1.6412
G1 X135.349 Y100.885 E1.6800
G1 X135.018 Y101.331 E1.7188
G1 X134.641 Y101.740 E1.7576
G1 X134.223 Y102.105 E1.7964
G1 X133.768 Y102.425 E1.8352
G1 X133.320 Y102.673 E1.8710
G1 X132.770 Y102.911 E1.9129
G1 X132.239 Y103.071 E1.9516
G1 X131.693 Y103.173 E1.9904
G1 X131.139 Y103.218 E2.0292
G1 X130.583 Y103.203 E2.0681
G1 X130.033 Y103.129 E2.1068
G1 X129.500 Y103.000 E2.1451
G1 X128.970 Y102.809 E2.1845
G1 X128.471 Y102.566 E2.2232
G1 X128.000 Y102.272 E2.2620
G1 X127.563 Y101.928 E2.3009
G1 X127.165 Y101.541 E2.3396
G1 X126.810 Y101.113 E2.3785
G1 X126.503 Y100.650 E2.4173
G1 X126.247 Y100.157 E2.4561
G1 X126.044 Y99.639 E2.4949
G1 X125.898 Y99.104 E2.5337
G1 X125.810 Y98.555 E2.5725
G1 X125.780 Y98.000 E2.6113
G1 X125.810 Y97.445 E2.6502
G1 X125.898 Y96.896 E2.6890
G1 X126.044 Y96.361 E2.7277
G1 X126.247 Y95.843 E2.7666
G1 X126.503 Y95.350 E2.8054
G1 X126.810 Y94.887 E2.8442
G1 X127.165 Y94.459 E2.8830
G1 X127.563 Y94.072 E2.9218
G1 X128.000 Y93.728 E2.9606
G1 X128.471 Y93.434 E2.9994
G1 X128.970 Y93.191 E3.0382
G1 X129.493 Y93.002 E3.0770
G1 F1500 E2.0770
G0 F6000 X129.525 Y93.097
G0 X131.177 Y93.178
G0 X132.256 Y93.519
;TYPE:WALL-INNER
;WIDTH:0.560
G1 F1500 E3.0770
G1 F1500 X132.580 Y93.617 E3.1007
G1 X133.037 Y93.810 E3.1353
G1 X133.470 Y94.050 E3.1699
G1 X133.877 Y94.336 E3.2046
G1 X134.250 Y94.662 E3.2392
G1 X134.586 Y95.027 E3.2739
G1 X134.882 Y95.425 E3.3085
G1 X135.133 Y95.851 E3.3431
G1 X135.348 Y96.332 E3.3799
G1 X135.469 Y96.718 E3.4081
G1 X134.943 Y96.648 E3.4452
G1 X134.532 Y96.738 E3.4746
G1 X134.264 Y96.872 E3.4955
G1 X133.835 Y97.251 E3.5355
G1 X133.595 Y96.666 E3.5797
G1 X133.286 Y96.188 E3.6194
G1 X133.007 Y95.882 E3.6483
G1 X132.626 Y95.578 E3.6824
G1 X132.199 Y95.340 E3.7165
G1 X131.847 Y95.215 E3.7426
G1 X131.822 Y95.050 E3.7543
G1 X131.976 Y94.937 E3.7676
G1 X132.243 Y94.541 E3.8010
G1 X132.359 Y94.000 E3.8396
G1 X132.256 Y93.519 E3.8740
G1 F1500 E2.8740
G0 F6000 X133.554 Y98.089
G0 X132.998 Y99.510
G0 X131.289 Y100.654
G1 F1500 E3.8740
G1 F1500 X131.340 Y100.440 E3.8893
G1 X132.663 Y100.440 E3.9817
G1 X133.211 Y99.905 E4.0352
G1 X133.499 Y99.506 E4.0696
G1 X133.717 Y99.065 E4.1040
G1 X133.781 Y98.849 E4.1197
G1 X133.945 Y98.815 E4.1314
G1 X134.109 Y99.015 E4.1495
G1 X134.495 Y99.253 E4.1811
G1 X134.943 Y99.352 E4.2132
G1 X135.476 Y99.282 E4.2507
G1 X135.339 Y99.696 E4.2812
G1 X135.134 Y100.148 E4.3159
G1 X134.882 Y100.575 E4.3505
G1 X134.586 Y100.973 E4.3851
G1 X134.250 Y101.338 E4.4198
G1 X133.877 Y101.664 E4.4544
G1 X133.470 Y101.950 E4.4891
G1 X133.073 Y102.170 E4.5208
G1 X132.577 Y102.384 E4.5586
G1 X132.256 Y102.481 E4.5820
G1 X132.359 Y102.000 E4.6163
G1 X132.243 Y101.458 E4.6551
G1 X131.995 Y101.094 E4.6858
G1 X131.771 Y100.896 E4.7067
G1 X131.289 Y100.654 E4.7444
G0 F6000 X130.759 Y100.688
G1 F1500 X130.532 Y100.738 E4.7606
G1 X130.264 Y100.872 E4.7815
G1 X129.948 Y101.151 E4.8110
G1 X129.726 Y101.548 E4.8428
G1 X129.654 Y101.962 E4.8721
G1 X129.697 Y102.476 E4.9081
G1 X129.188 Y102.292 E4.9459
G1 X128.743 Y102.075 E4.9805
G1 X128.322 Y101.813 E5.0151
G1 X127.932 Y101.506 E5.0498
G1 X127.577 Y101.160 E5.0844
G1 X127.260 Y100.779 E5.1191
G1 X126.986 Y100.365 E5.1537
G1 X126.758 Y99.925 E5.1883
G1 X126.559 Y99.418 E5.2264
G1 X126.667 Y99.291 E5.2380
G1 X126.943 Y99.352 E5.2578
G1 X127.362 Y99.297 E5.2873
G1 X127.638 Y99.185 E5.3081
G1 X127.976 Y98.937 E5.3374
G1 X128.047 Y98.831 E5.3463
G1 X128.221 Y98.858 E5.3586
G1 X128.283 Y99.065 E5.3737
G1 X128.501 Y99.506 E5.4080
G1 X128.789 Y99.905 E5.4424
G1 X129.337 Y100.440 E5.4959
G1 X130.733 Y100.440 E5.5934
G1 X130.759 Y100.688 E5.6108
G1 F1500 E4.6108
G0 F6000 X129.575 Y99.980
G0 X129.565 Y99.880
;TYPE:WALL-OUTER
;WIDTH:0.560
G1 F1500 E5.6108
G1 F1500 X132.435 Y99.880 E5.8113
G1 X132.785 Y99.538 E5.8455
G1 X133.018 Y99.216 E5.8732
G1 X133.194 Y98.860 E5.9010
G1 X133.307 Y98.478 E5.9288
G1 X133.355 Y98.083 E5.9566
G1 X133.334 Y97.686 E5.9843
G1 X133.249 Y97.297 E6.0122
G1 X133.097 Y96.927 E6.0401
G1 X132.841 Y96.531 E6.0730
G1 X132.623 Y96.292 E6.0956
G1 X132.313 Y96.045 E6.1233
G1 X131.967 Y95.852 E6.1510
G1 X131.592 Y95.719 E6.1788
G1 X131.199 Y95.652 E6.2066
G1 X130.801 Y95.652 E6.2344
G1 X130.408 Y95.719 E6.2623
G1 X130.033 Y95.852 E6.2901
G1 X129.687 Y96.045 E6.3177
G1 X129.375 Y96.293 E6.3456
G1 X129.112 Y96.591 E6.3733
G1 X128.902 Y96.929 E6.4011
G1 X128.751 Y97.297 E6.4289
G1 X128.666 Y97.686 E6.4567
G1 X128.645 Y98.083 E6.4845
G1 X128.693 Y98.478 E6.5123
G1 X128.806 Y98.860 E6.5401
G1 X128.982 Y99.216 E6.5678
G1 X129.215 Y99.538 E6.5956
G1 X129.565 Y99.880 E6.6298
G1 F1500 E5.6298
G0 F6000 X129.575 Y99.980
G0 X129.895 Y101.396
G0 X130.439 Y102.678
G0 X130.483 Y102.588
G1 F1500 E6.6298
G1 F1500 X130.708 Y102.727 E6.6482
G1 X130.967 Y102.784 E6.6668
G1 X131.218 Y102.751 E6.6845
G1 X131.363 Y102.692 E6.6954
G1 X131.566 Y102.543 E6.7130
G1 X131.718 Y102.318 E6.7319
G1 X131.786 Y102.000 E6.7547
G1 X131.718 Y101.682 E6.7774
G1 X131.572 Y101.467 E6.7955
G1 X131.455 Y101.364 E6.8064
G1 X131.230 Y101.251 E6.8240
G1 X130.967 Y101.216 E6.8425
G1 X130.720 Y101.270 E6.8602
G1 X130.580 Y101.340 E6.8711
G1 X130.390 Y101.508 E6.8888
G1 X130.261 Y101.738 E6.9073
G1 X130.218 Y101.987 E6.9249
G1 X130.231 Y102.144 E6.9359
G1 X130.315 Y102.383 E6.9536
G1 X130.483 Y102.588 E6.9721
G1 F1500 E5.9721
G0 F6000 X130.439 Y102.678
G0 X126.439 Y98.678
G0 X126.483 Y98.588
G1 F1500 E6.9721
G1 F1500 X126.708 Y98.727 E6.9906
G1 X126.967 Y98.784 E7.0091
G1 X127.218 Y98.751 E7.0268
G1 X127.363 Y98.692 E7.0377
G1 X127.566 Y98.543 E7.0553
G1 X127.718 Y98.318 E7.0743
G1 X127.786 Y98.000 E7.0970
G1 X127.718 Y97.682 E7.1197
G1 X127.572 Y97.467 E7.1379
G1 X127.455 Y97.364 E7.1487
G1 X127.230 Y97.251 E7.1663
G1 X126.967 Y97.216 E7.1849
G1 X126.720 Y97.270 E7.2025
G1 X126.580 Y97.340 E7.2135
G1 X126.390 Y97.508 E7.2312
G1 X126.261 Y97.738 E7.2496
G1 X126.218 Y97.987 E7.2672
G1 X126.231 Y98.144 E7.2782
G1 X126.315 Y98.383 E7.2959
G1 X126.483 Y98.588 E7.3144
G1 F1500 E6.3144
G0 F6000 X126.439 Y98.678
G0 X127.269 Y98.944
G0 X130.439 Y94.678
G0 X130.483 Y94.588
G1 F1500 E7.3144
G1 F1500 X130.708 Y94.727 E7.3329
G1 X130.967 Y94.784 E7.3514
G1 X131.218 Y94.751 E7.3691
G1 X131.363 Y94.692 E7.3801
G1 X131.566 Y94.543 E7.3976
G1 X131.718 Y94.318 E7.4166
G1 X131.786 Y94.000 E7.4393
G1 X131.718 Y93.682 E7.4620
G1 X131.572 Y93.467 E7.4802
G1 X131.455 Y93.364 E7.4911
G1 X131.230 Y93.251 E7.5087
G1 X130.967 Y93.216 E7.5272
G1 X130.720 Y93.270 E7.5449
G1 X130.580 Y93.340 E7.5558
G1 X130.390 Y93.508 E7.5735
G1 X130.261 Y93.738 E7.5919
G1 X130.218 Y93.987 E7.6096
G1 X130.231 Y94.144 E7.6206
G1 X130.315 Y94.383 E7.6383
G1 X130.483 Y94.588 E7.6568
G1 F1500 E6.6568
G0 F6000 X130.439 Y94.678
G0 X132.511 Y96.079
G0 X134.439 Y98.678
G0 X134.483 Y98.588
G1 F1500 E7.6568
G1 F1500 X134.708 Y98.727 E7.6753
G1 X134.967 Y98.784 E7.6938
G1 X135.218 Y98.751 E7.7115
G1 X135.363 Y98.692 E7.7224
G1 X135.566 Y98.543 E7.7400
G1 X135.718 Y98.318 E7.7589
G1 X135.786 Y98.000 E7.7817
G1 X135.718 Y97.682 E7.8044
G1 X135.572 Y97.467 E7.8225
G1 X135.455 Y97.364 E7.8334
G1 X135.230 Y97.251 E7.8510
G1 X134.967 Y97.216 E7.8695
G1 X134.720 Y97.270 E7.8872
G1 X134.580 Y97.340 E7.8981
G1 X134.390 Y97.508 E7.9158
G1 X134.261 Y97.738 E7.9343
G1 X134.218 Y97.987 E7.9519
G1 X134.231 Y98.144 E7.9629
G1 X134.315 Y98.383 E7.9806
G1 X134.483 Y98.588 E7.9991
G0 F6000 X133.859 Y98.536
;TYPE:SOLID-FILL
;WIDTH:0.560
G1 F1500 X133.784 Y98.065 E8.0236
G1 X133.790 Y97.675 E8.0509
G1 F1500 E7.0509
G0 F6000 X134.930 Y99.607
;TYPE:SOLID-FILL
;WIDTH:0.560
G1 F1500 E8.0509
G1 F1500 X135.049 Y99.726 E8.0626
G0 F6000 X134.780 Y100.249
G1 F1500 X133.863 Y99.333 E8.1531
G0 F6000 X133.572 Y99.833
G1 F1500 X134.459 Y100.720 E8.2408
G0 F6000 X134.088 Y101.142
G1 F1500 X133.207 Y100.260 E8.3278
G0 F6000 X132.806 Y100.651
G1 F1500 X133.661 Y101.506 E8.4123
G0 F6000 X133.183 Y101.820
G1 F1500 X132.294 Y100.931 E8.5001
G1 F1500 E7.5001
G0 F6000 X134.279 Y96.581
G1 F1500 E8.5001
G1 F1500 X132.422 Y94.723 E8.6836
G0 F6000 X132.593 Y94.102
G1 F1500 X134.891 Y96.400 E8.9106
G1 F1500 E7.9106
G0 F6000 X131.539 Y95.425
;TYPE:SOLID-FILL
;WIDTH:0.560
G1 F1500 E8.9106
G1 F1500 X131.155 Y95.041 E8.9485
G1 F1500 E7.9485
G0 F6000 X129.410 Y94.088
;TYPE:SOLID-FILL
;WIDTH:0.560
G1 F1500 E8.9485
G1 F1500 X129.270 Y93.948 E8.9623
G0 F6000 X128.748 Y94.218
G1 F1500 X129.659 Y95.128 E9.0523
G0 F6000 X129.161 Y95.423
G1 F1500 X128.279 Y94.541 E9.1394
G0 F6000 X127.861 Y94.914
G1 F1500 X128.736 Y95.789 E9.2258
G0 F6000 X128.381 Y96.227
G1 F1500 X127.490 Y95.335 E9.3139
G0 F6000 X127.176 Y95.814
G1 F1500 X128.078 Y96.715 E9.4029
G0 F6000 X128.027 Y97.456
;TYPE:SOLID-FILL
;WIDTH:0.560
G1 F1500 X128.198 Y98.024 E9.4376
G1 X128.365 Y98.586 E9.4786
G1 F1500 E8.4786
G0 F6000 X127.001 Y99.598
;TYPE:SOLID-FILL
;WIDTH:0.560
G1 F1500 E9.4786
G1 F1500 X129.392 Y101.989 E9.7148
G0 F6000 X129.546 Y101.351
G1 F1500 X127.647 Y99.452 E9.9023
G1 F1500 E8.9023
G0 F6000 X129.679 Y100.692
G1 F1500 E9.9023
G1 F1500 X129.831 Y100.844 E9.9173
;PRINTING: wheel_for_flywheel.STL
;PRINTING_ID: 1
G1 F1500 E8.9173
G0 F6000 X138.835 Y122.072
;TYPE:WALL-INNER
;WIDTH:0.560
G1 F1500 E9.9173
G1 F1500 X139.798 Y123.230 E10.0225
G1 X139.723 Y123.390 E10.0349
G1 X138.223 Y123.391 E10.1397
G1 X138.970 Y124.698 E10.2448
G1 X138.869 Y124.842 E10.2571
G1 X137.391 Y124.583 E10.3619
G1 X137.899 Y125.998 E10.4669
G1 X137.774 Y126.123 E10.4793
G1 X136.367 Y125.611 E10.5838
G1 X136.620 Y127.094 E10.6889
G1 X136.475 Y127.195 E10.7012
G1 X135.175 Y126.445 E10.8061
G1 X135.169 Y127.950 E10.9112
G1 X135.008 Y128.025 E10.9236
G1 X133.858 Y127.061 E11.0284
G1 X133.591 Y128.541 E11.1335
G1 X133.420 Y128.587 E11.1458
G1 X132.455 Y127.439 E11.2506
G1 X131.935 Y128.850 E11.3556
G1 X131.759 Y128.865 E11.3679
G1 X131.008 Y127.567 E11.4727
G1 X130.251 Y128.865 E11.5776
G1 X130.075 Y128.849 E11.5900
G1 X129.560 Y127.431 E11.6954
G1 X128.588 Y128.583 E11.8006
G1 X128.418 Y128.537 E11.8129
G1 X128.158 Y127.065 E11.9173
G1 X127.000 Y128.028 E12.0225
G1 X126.840 Y127.953 E12.0349
G1 X126.839 Y126.453 E12.1396
G1 X125.532 Y127.200 E12.2448
G1 X125.388 Y127.099 E12.2571
G1 X125.647 Y125.622 E12.3618
G1 X124.232 Y126.130 E12.4668
G1 X124.108 Y126.005 E12.4791
G1 X124.619 Y124.597 E12.5837
G1 X123.136 Y124.850 E12.6888
G1 X123.035 Y124.705 E12.7012
G1 X123.785 Y123.405 E12.8060
G1 X122.280 Y123.399 E12.9111
G1 X122.205 Y123.238 E12.9235
G1 X123.168 Y122.088 E13.0283
G1 X121.689 Y121.821 E13.1333
G1 X121.644 Y121.650 E13.1456
G1 X122.792 Y120.687 E13.2503
G1 X121.379 Y120.165 E13.3555
G1 X121.364 Y119.989 E13.3678
G1 X122.662 Y119.238 E13.4726
G1 X121.365 Y118.481 E13.5774
G1 X121.381 Y118.305 E13.5898
G1 X122.789 Y117.792 E13.6945
G1 X121.640 Y116.819 E13.7996
G1 X121.686 Y116.648 E13.8120
G1 X123.164 Y116.388 E13.9168
G1 X122.202 Y115.230 E14.0220
G1 X122.277 Y115.070 E14.0343
G1 X123.777 Y115.069 E14.1391
G1 X123.030 Y113.762 E14.2442
G1 X123.131 Y113.618 E14.2565
G1 X124.609 Y113.877 E14.3613
G1 X124.101 Y112.463 E14.4662
G1 X124.226 Y112.338 E14.4786
G1 X125.633 Y112.850 E14.5832
G1 X125.380 Y111.366 E14.6883
G1 X125.525 Y111.265 E14.7007
G1 X126.825 Y112.015 E14.8055
G1 X126.831 Y110.510 E14.9106
G1 X126.992 Y110.435 E14.9230
G1 X128.142 Y111.398 E15.0278
G1 X128.409 Y109.919 E15.1328
G1 X128.580 Y109.873 E15.1451
G1 X129.544 Y111.021 E15.2498
G1 X130.065 Y109.610 E15.3549
G1 X130.241 Y109.595 E15.3672
G1 X130.992 Y110.893 E15.4720
G1 X131.749 Y109.595 E15.5769
G1 X131.925 Y109.611 E15.5893
G1 X132.438 Y111.019 E15.6939
G1 X133.411 Y109.870 E15.7991
G1 X133.582 Y109.916 E15.8115
G1 X133.842 Y111.394 E15.9163
G1 X135.000 Y110.432 E16.0214
G1 X135.160 Y110.507 E16.0338
G1 X135.161 Y112.007 E16.1385
G1 X136.468 Y111.260 E16.2437
G1 X136.612 Y111.361 E16.2560
G1 X136.353 Y112.839 E16.3608
G1 X137.767 Y112.331 E16.4657
G1 X137.892 Y112.456 E16.4781
G1 X137.380 Y113.863 E16.5826
G1 X138.864 Y113.610 E16.6878
G1 X138.965 Y113.755 E16.7001
G1 X138.215 Y115.055 E16.8050
G1 X139.720 Y115.061 E16.9101
G1 X139.795 Y115.222 E16.9225
G1 X138.831 Y116.372 E17.0273
G1 X140.311 Y116.639 E17.1323
G1 X140.357 Y116.810 E17.1447
G1 X139.209 Y117.774 E17.2494
G1 X140.620 Y118.295 E17.3545
G1 X140.635 Y118.471 E17.3668
G1 X139.338 Y119.222 E17.4715
G1 X140.636 Y119.980 E17.5765
G1 X140.620 Y120.156 E17.5888
G1 X139.211 Y120.669 E17.6936
G1 X140.359 Y121.641 E17.7986
G1 X140.313 Y121.812 E17.8110
G1 X138.835 Y122.072 E17.9158
G1 F1500 E16.9158
G0 F6000 X139.813 Y122.526
G0 X139.883 Y122.456
;TYPE:WALL-OUTER
;WIDTH:0.560
G1 F1500 E17.9158
G1 F1500 X140.992 Y123.789 E18.0369
G1 X140.917 Y123.949 E18.0493
G1 X139.188 Y123.950 E18.1700
G1 X140.048 Y125.455 E18.2911
G1 X139.946 Y125.600 E18.3035
G1 X138.244 Y125.301 E18.4242
G1 X138.829 Y126.932 E18.5452
G1 X138.704 Y127.057 E18.5575
G1 X137.081 Y126.467 E18.6782
G1 X137.373 Y128.174 E18.7991
G1 X137.228 Y128.275 E18.8115
G1 X135.731 Y127.412 E18.9322
G1 X135.723 Y129.146 E19.0533
G1 X135.563 Y129.220 E19.0656
G1 X134.238 Y128.110 E19.1863
G1 X133.930 Y129.815 E19.3073
G1 X133.759 Y129.860 E19.3197
G1 X132.647 Y128.537 E19.4404
