;Sliced by ideaMaker 4.3.2.6470, 2023-02-22 18:03:37 UTC-0600
;Dimension: 250.000 200.000 200.000 0.400
;Plate Shape: 0
;Origin Center: 0
;Extruder Offset #1: 25.000 0.000
;Filament Diameter #1: 1.750
;Filament Diameter #2: 1.750
;Filament Compensation #1: 100.00
;Filament Compensation #2: 90.00
;Filament Density #1: 1240.00
;Filament Density #2: 1240.00
;Filament Type #1: PLA
;Filament Type #2: 
;Filament Name #1: [CraftBot] PLA 1.75mm-copy
;Filament Name #2: 
;Firmware: Marlin
;Bounding Box: 121.665 140.332 88.663 107.336 0.000 6.050
;Model Gap: 0.000

M140 S65 ;start heating bed
M109 S215 ;start heating T0
M4002 P1 ; set heat program 1
M1203 A88 D66 F1200; set higher accel and decel
G28 X0 Y0 ; home XY
G28 Z0 ; home Z
G91 ; set relative movements
G0 F100 ; speed 100mm/sec
G0 E5 ; extrude 5mm of filament
G90 ;absolute movements
G0 X8 ; account for Craftbot offset
;end of Start GCode
;TOTAL_NUM: 1
;PRINTING_TIME: 0
;REMAINING_TIME: 255
;LAYER:0
;Z:0.300
;HEIGHT:0.300
M106 S135
;PRINTING: NON-OBJECT
;PRINTING_ID: -1
G1 F2400 E-1.0000
G0 F6000 X123.629 Y92.269
G0 F300 Z0.300
;TYPE:SKIRT
;WIDTH:0.560
G1 F1500 E0.0000
G1 F1101 X124.036 Y91.781 E0.0444
G1 X124.692 Y91.117 E0.1096
G1 X124.983 Y90.860 E0.1367
G1 X125.493 Y90.460 E0.1820
G1 X125.814 Y90.237 E0.2093
G1 X126.613 Y89.759 E0.2743
G1 X127.557 Y89.321 E0.3470
G1 X128.108 Y89.122 E0.3879
G1 X128.501 Y89.004 E0.4166
G1 X129.070 Y88.865 E0.4575
G1 X129.486 Y88.788 E0.4870
G1 X130.456 Y88.679 E0.5552
G1 X131.072 Y88.663 E0.5982
G1 X131.425 Y88.673 E0.6229
G1 X132.449 Y88.777 E0.6948
G1 X133.423 Y88.983 E0.7643
G1 X134.372 Y89.294 E0.8341
G1 X135.220 Y89.672 E0.8989
G1 X135.801 Y89.991 E0.9452
G1 X136.101 Y90.179 E0.9700
G1 X136.921 Y90.781 E1.0410
G1 X137.362 Y91.166 E1.0819
G1 X137.640 Y91.436 E1.1090
G1 X138.059 Y91.889 E1.1521
G1 X138.682 Y92.695 E1.2232
G1 X138.891 Y93.011 E1.2497
G1 X139.204 Y93.542 E1.2927
G1 X139.385 Y93.896 E1.3205
G1 X139.653 Y94.496 E1.3664
G1 X139.798 Y94.883 E1.3953
G1 X140.015 Y95.576 E1.4460
G1 X140.110 Y95.949 E1.4729
G1 X140.249 Y96.719 E1.5275
G1 X140.313 Y97.331 E1.5705
G1 X140.332 Y97.718 E1.5976
G1 X140.314 Y98.651 E1.6627
G1 X140.181 Y99.700 E1.7366
G1 X139.965 Y100.608 E1.8018
G1 X139.614 Y101.601 E1.8754
G1 X139.211 Y102.443 E1.9405
G1 X138.875 Y103.015 E1.9869
G1 X138.682 Y103.305 E2.0112
G1 X138.090 Y104.074 E2.0790
G1 X137.662 Y104.542 E2.1233
G1 X137.362 Y104.834 E2.1525
G1 X136.884 Y105.249 E2.1968
G1 X136.101 Y105.821 E2.2645
G1 X135.801 Y106.009 E2.2892
G1 X134.965 Y106.451 E2.3553
G1 X134.358 Y106.712 E2.4014
G1 X134.004 Y106.841 E2.4277
G1 X133.413 Y107.020 E2.4709
G1 X133.042 Y107.111 E2.4975
G1 X132.408 Y107.230 E2.5426
G1 X132.027 Y107.279 E2.5694
G1 X131.090 Y107.336 E2.6350
G1 X130.456 Y107.321 E2.6793
G1 X129.428 Y107.203 E2.7516
G1 X128.521 Y107.002 E2.8164
G1 X127.530 Y106.669 E2.8895
G1 X127.171 Y106.515 E2.9168
G1 X126.291 Y106.061 E2.9859
G1 X125.467 Y105.521 E3.0547
G1 X124.983 Y105.140 E3.0977
G1 X124.692 Y104.883 E3.1249
G1 X124.003 Y104.182 E3.1935
G1 X123.610 Y103.708 E3.2365
G1 X123.385 Y103.404 E3.2629
G1 X123.061 Y102.916 E3.3039
G1 X122.847 Y102.549 E3.3335
G1 X122.417 Y101.674 E3.4016
G1 X122.192 Y101.100 E3.4447
G1 X122.082 Y100.767 E3.4692
G1 X121.920 Y100.175 E3.5120
G1 X121.839 Y99.802 E3.5387
G1 X121.736 Y99.165 E3.5838
G1 X121.696 Y98.778 E3.6110
G1 X121.665 Y97.845 E3.6762
G1 X121.697 Y97.211 E3.7205
G1 X121.831 Y96.238 E3.7891
G1 X122.082 Y95.233 E3.8614
G1 X122.192 Y94.900 E3.8859
G1 X122.436 Y94.282 E3.9324
G1 X122.847 Y93.451 E3.9971
G1 X123.061 Y93.084 E4.0268
G1 X123.402 Y92.572 E4.0697
G1 X123.629 Y92.269 E4.0962
G0 F6000 X124.060 Y92.626
G1 F1101 X124.434 Y92.175 E4.1371
G1 X125.090 Y91.511 E4.2023
G1 X125.352 Y91.281 E4.2267
G1 X125.813 Y90.919 E4.2676
G1 X126.101 Y90.718 E4.2921
G1 X126.900 Y90.240 E4.3572
G1 X127.747 Y89.848 E4.4223
G1 X128.298 Y89.649 E4.4633
G1 X128.634 Y89.548 E4.4878
G1 X129.203 Y89.409 E4.5287
G1 X129.549 Y89.344 E4.5533
G1 X130.471 Y89.239 E4.6181
G1 X131.056 Y89.223 E4.6590
G1 X131.409 Y89.233 E4.6836
G1 X132.335 Y89.325 E4.7486
G1 X133.251 Y89.516 E4.8140
G1 X134.144 Y89.805 E4.8795
G1 X134.992 Y90.183 E4.9444
G1 X135.504 Y90.466 E4.9852
G1 X135.804 Y90.654 E5.0100
G1 X136.553 Y91.203 E5.0748
G1 X136.994 Y91.588 E5.1157
G1 X137.250 Y91.837 E5.1407
G1 X137.647 Y92.268 E5.1816
G1 X138.216 Y93.005 E5.2466
G1 X138.409 Y93.295 E5.2710
G1 X138.706 Y93.799 E5.3118
G1 X138.874 Y94.125 E5.3374
G1 X139.129 Y94.695 E5.3811
G1 X139.264 Y95.051 E5.4076
G1 X139.473 Y95.716 E5.4563
G1 X139.559 Y96.050 E5.4804
G1 X139.692 Y96.778 E5.5321
G1 X139.754 Y97.360 E5.5730
G1 X139.772 Y97.707 E5.5973
G1 X139.754 Y98.640 E5.6624
G1 X139.636 Y99.570 E5.7279
G1 X139.420 Y100.478 E5.7931
G1 X139.109 Y101.359 E5.8584
G1 X138.706 Y102.201 E5.9236
G1 X138.409 Y102.705 E5.9644
G1 X138.216 Y102.995 E5.9888
G1 X137.647 Y103.732 E6.0538
G1 X137.250 Y104.163 E6.0947
G1 X136.994 Y104.412 E6.1197
G1 X136.553 Y104.797 E6.1605
G1 X135.804 Y105.346 E6.2254
G1 X135.504 Y105.534 E6.2501
G1 X134.743 Y105.937 E6.3103
G1 X134.166 Y106.186 E6.3542
G1 X133.812 Y106.315 E6.3805
G1 X133.251 Y106.484 E6.4214
G1 X132.910 Y106.567 E6.4459
G1 X132.335 Y106.675 E6.4868
G1 X131.993 Y106.720 E6.5109
G1 X131.056 Y106.777 E6.5765
G1 X130.471 Y106.761 E6.6173
G1 X129.549 Y106.656 E6.6821
G1 X128.642 Y106.455 E6.7470
G1 X127.749 Y106.153 E6.8129
G1 X127.426 Y106.016 E6.8374
G1 X126.597 Y105.592 E6.9024
G1 X125.813 Y105.081 E6.9678
G1 X125.352 Y104.719 E7.0087
G1 X125.090 Y104.489 E7.0331
G1 X124.434 Y103.825 E7.0983
G1 X124.060 Y103.374 E7.1392
G1 X123.852 Y103.094 E7.1636
G1 X123.528 Y102.606 E7.2045
G1 X123.349 Y102.301 E7.2292
G1 X122.938 Y101.470 E7.2939
G1 X122.724 Y100.924 E7.3349
G1 X122.614 Y100.591 E7.3594
G1 X122.460 Y100.027 E7.4002
G1 X122.386 Y99.684 E7.4247
G1 X122.293 Y99.106 E7.4656
G1 X122.256 Y98.759 E7.4900
G1 X122.225 Y97.826 E7.5552
G1 X122.256 Y97.241 E7.5961
G1 X122.386 Y96.316 E7.6613
G1 X122.614 Y95.409 E7.7267
G1 X122.724 Y95.076 E7.7512
G1 X122.938 Y94.530 E7.7921
G1 X123.349 Y93.699 E7.8569
G1 X123.528 Y93.394 E7.8816
G1 X123.852 Y92.906 E7.9225
G1 X124.060 Y92.626 E7.9469
;PRINTING: fitting_for_dc_motor_shaft.STL
;PRINTING_ID: 0
G1 F2400 E6.9469
G0 F6000 X126.810 Y94.887
;TYPE:WALL-OUTER
;WIDTH:0.560
G1 F1500 E7.9469
G1 F1101 X127.165 Y94.459 E7.9857
G1 X127.563 Y94.072 E8.0245
G1 X128.000 Y93.728 E8.0633
G1 X128.471 Y93.434 E8.1021
G1 X128.970 Y93.191 E8.1409
G1 X129.493 Y93.002 E8.1797
G1 X130.033 Y92.871 E8.2185
G1 X130.583 Y92.797 E8.2573
G1 X131.139 Y92.782 E8.2961
G1 X131.693 Y92.827 E8.3349
G1 X132.239 Y92.929 E8.3737
G1 X132.771 Y93.090 E8.4126
G1 X133.282 Y93.306 E8.4513
G1 X133.768 Y93.575 E8.4901
G1 X134.223 Y93.895 E8.5290
G1 X134.641 Y94.260 E8.5677
G1 X135.018 Y94.669 E8.6066
G1 X135.349 Y95.115 E8.6454
G1 X135.631 Y95.593 E8.6841
G1 X135.873 Y96.133 E8.7255
G1 X136.072 Y96.769 E8.7720
G1 X136.153 Y97.168 E8.8004
G1 X136.212 Y97.722 E8.8394
G1 X136.212 Y98.278 E8.8782
G1 X136.153 Y98.830 E8.9170
G1 X136.036 Y99.373 E8.9558
G1 X135.861 Y99.901 E8.9946
G1 X135.631 Y100.407 E9.0334
G1 X135.349 Y100.885 E9.0722
G1 X135.018 Y101.331 E9.1110
G1 X134.641 Y101.740 E9.1498
G1 X134.223 Y102.105 E9.1886
G1 X133.768 Y102.425 E9.2275
G1 X133.320 Y102.673 E9.2632
G1 X132.770 Y102.911 E9.3051
G1 X132.239 Y103.071 E9.3438
G1 X131.693 Y103.173 E9.3826
G1 X131.139 Y103.218 E9.4214
G1 X130.583 Y103.203 E9.4603
G1 X130.033 Y103.129 E9.4990
G1 X129.500 Y103.000 E9.5374
G1 X128.970 Y102.809 E9.5767
G1 X128.471 Y102.566 E9.6155
G1 X128.000 Y102.272 E9.6542
G1 X127.563 Y101.928 E9.6931
G1 X127.165 Y101.541 E9.7319
G1 X126.810 Y101.113 E9.7707
G1 X126.503 Y100.650 E9.8095
G1 X126.247 Y100.157 E9.8483
G1 X126.044 Y99.639 E9.8872
G1 X125.898 Y99.104 E9.9259
G1 X125.810 Y98.555 E9.9647
G1 X125.780 Y98.000 E10.0036
G1 X125.810 Y97.445 E10.0424
G1 X125.898 Y96.896 E10.0812
G1 X126.044 Y96.361 E10.1199
G1 X126.247 Y95.843 E10.1588
G1 X126.503 Y95.350 E10.1976
G1 X126.810 Y94.887 E10.2364
G1 F2400 E9.2364
G0 F6000 X126.892 Y94.943
G0 X132.049 Y95.670
G0 X132.742 Y96.330
G0 X134.439 Y98.678
G0 X134.483 Y98.588
G1 F1500 E10.2364
G1 F1101 X134.708 Y98.727 E10.2549
G1 X134.967 Y98.784 E10.2734
G1 X135.218 Y98.751 E10.2911
G1 X135.363 Y98.692 E10.3020
G1 X135.566 Y98.543 E10.3196
G1 X135.718 Y98.318 E10.3386
G1 X135.786 Y98.000 E10.3613
G1 X135.718 Y97.682 E10.3840
G1 X135.572 Y97.467 E10.4022
G1 X135.455 Y97.364 E10.4130
G1 X135.230 Y97.251 E10.4306
G1 X134.967 Y97.216 E10.4492
G1 X134.720 Y97.270 E10.4668
G1 X134.580 Y97.340 E10.4778
G1 X134.390 Y97.508 E10.4955
G1 X134.261 Y97.738 E10.5139
G1 X134.218 Y97.987 E10.5315
G1 X134.231 Y98.144 E10.5425
G1 X134.315 Y98.383 E10.5602
G1 X134.483 Y98.588 E10.5787
G1 F2400 E9.5787
G0 F6000 X134.439 Y98.678
G0 X132.626 Y96.159
G0 X130.439 Y94.678
G0 X130.483 Y94.588
G1 F1500 E10.5787
G1 F1101 X130.708 Y94.727 E10.5972
G1 X130.967 Y94.784 E10.6157
G1 X131.218 Y94.751 E10.6334
G1 X131.363 Y94.692 E10.6444
G1 X131.566 Y94.543 E10.6619
G1 X131.718 Y94.318 E10.6809
G1 X131.786 Y94.000 E10.7036
G1 X131.718 Y93.682 E10.7263
G1 X131.572 Y93.467 E10.7445
G1 X131.455 Y93.364 E10.7554
G1 X131.230 Y93.251 E10.7730
G1 X130.967 Y93.216 E10.7915
G1 X130.720 Y93.270 E10.8092
G1 X130.580 Y93.340 E10.8201
G1 X130.390 Y93.508 E10.8378
G1 X130.261 Y93.738 E10.8562
G1 X130.218 Y93.987 E10.8739
G1 X130.231 Y94.144 E10.8849
G1 X130.315 Y94.383 E10.9026
G1 X130.483 Y94.588 E10.9211
G1 F2400 E9.9211
G0 F6000 X130.439 Y94.678
G0 X128.561 Y97.238
G0 X128.620 Y98.932
G0 X129.575 Y99.980
G0 X129.565 Y99.880
G1 F1500 E10.9211
G1 F1101 X132.435 Y99.880 E11.1215
G1 X132.785 Y99.538 E11.1557
G1 X133.018 Y99.216 E11.1835
G1 X133.194 Y98.860 E11.2112
G1 X133.307 Y98.478 E11.2390
G1 X133.355 Y98.083 E11.2668
G1 X133.334 Y97.686 E11.2946
G1 X133.249 Y97.297 E11.3224
G1 X133.097 Y96.927 E11.3503
G1 X132.841 Y96.531 E11.3833
G1 X132.623 Y96.292 E11.4059
G1 X132.313 Y96.045 E11.4336
G1 X131.967 Y95.852 E11.4612
G1 X131.592 Y95.719 E11.4890
G1 X131.199 Y95.652 E11.5169
G1 X130.801 Y95.652 E11.5447
G1 X130.408 Y95.719 E11.5725
G1 X130.033 Y95.852 E11.6003
G1 X129.687 Y96.045 E11.6280
G1 X129.375 Y96.293 E11.6558
G1 X129.112 Y96.591 E11.6836
G1 X128.902 Y96.929 E11.7114
G1 X128.751 Y97.297 E11.7392
G1 X128.666 Y97.686 E11.7670
G1 X128.645 Y98.083 E11.7947
G1 X128.693 Y98.478 E11.8225
G1 X128.806 Y98.860 E11.8504
G1 X128.982 Y99.216 E11.8781
G1 X129.215 Y99.538 E11.9059
G1 X129.565 Y99.880 E11.9400
G1 F2400 E10.9400
G0 F6000 X129.575 Y99.980
G0 X129.895 Y101.396
G0 X130.439 Y102.678
G0 X130.483 Y102.588
G1 F1500 E11.9400
G1 F1101 X130.708 Y102.727 E11.9585
G1 X130.967 Y102.784 E11.9770
G1 X131.218 Y102.751 E11.9947
G1 X131.363 Y102.692 E12.0056
G1 X131.566 Y102.543 E12.0232
G1 X131.718 Y102.318 E12.0422
G1 X131.786 Y102.000 E12.0649
G1 X131.718 Y101.682 E12.0876
G1 X131.572 Y101.467 E12.1058
G1 X131.455 Y101.364 E12.1167
G1 X131.230 Y101.251 E12.1342
G1 X130.967 Y101.216 E12.1528
G1 X130.720 Y101.270 E12.1704
G1 X130.580 Y101.340 E12.1814
G1 X130.390 Y101.508 E12.1991
G1 X130.261 Y101.738 E12.2175
G1 X130.218 Y101.987 E12.2352
G1 X130.231 Y102.144 E12.2462
G1 X130.315 Y102.383 E12.2639
G1 X130.483 Y102.588 E12.2824
G1 F2400 E11.2824
G0 F6000 X130.439 Y102.678
G0 X126.439 Y98.678
G0 X126.483 Y98.588
G1 F1500 E12.2824
G1 F1101 X126.708 Y98.727 E12.3008
G1 X126.967 Y98.784 E12.3194
G1 X127.218 Y98.751 E12.3370
G1 X127.363 Y98.692 E12.3480
G1 X127.566 Y98.543 E12.3656
G1 X127.718 Y98.318 E12.3845
G1 X127.786 Y98.000 E12.4072
G1 X127.718 Y97.682 E12.4300
G1 X127.572 Y97.467 E12.4481
G1 X127.455 Y97.364 E12.4590
G1 X127.230 Y97.251 E12.4766
G1 X126.967 Y97.216 E12.4951
G1 X126.720 Y97.270 E12.5128
G1 X126.580 Y97.340 E12.5237
G1 X126.390 Y97.508 E12.5414
G1 X126.261 Y97.738 E12.5598
G1 X126.218 Y97.987 E12.5775
G1 X126.231 Y98.144 E12.5885
G1 X126.315 Y98.383 E12.6062
G1 X126.483 Y98.588 E12.6247
G1 F2400 E11.6247
G0 F6000 X126.439 Y98.678
G0 X126.353 Y99.742
;TYPE:SOLID-FILL
;WIDTH:0.560
G1 F1500 E12.6247
G1 F1101 X129.255 Y102.644 E12.9114
G0 F6000 X130.037 Y102.634
G1 F1101 X126.298 Y98.895 E13.2807
G0 F6000 X127.201 Y99.006
G1 F1101 X129.994 Y101.799 E13.5566
G0 F6000 X130.266 Y101.280
G1 F1101 X127.725 Y98.738 E13.8076
G1 F2400 E12.8076
G0 F6000 X129.911 Y100.132
G1 F1500 E13.8076
G1 F1101 X130.776 Y100.997 E13.8931
G0 F6000 X130.703 Y100.132
G1 F1101 X133.074 Y102.503 E14.1273
G0 F6000 X133.594 Y102.231
G1 F1101 X131.495 Y100.132 E14.3346
G0 F6000 X132.287 Y100.132
G1 F1101 X134.062 Y101.907 E14.5099
G0 F6000 X134.484 Y101.537
G1 F1101 X132.811 Y99.864 E14.6752
G0 F6000 X133.171 Y99.433
G1 F1101 X134.860 Y101.121 E14.8420
G0 F6000 X135.189 Y100.658
G1 F1101 X133.446 Y98.915 E15.0141
G0 F6000 X134.084 Y98.762
G1 F1101 X135.471 Y100.148 E15.1511
G0 F6000 X135.699 Y99.585
G1 F1101 X135.131 Y99.016 E15.2072
G1 F2400 E14.2072
G0 F6000 X131.996 Y102.217
G1 F1500 E15.2072
G1 F1101 X132.505 Y102.726 E15.2575
G1 F2400 E14.2575
G0 F6000 X131.288 Y101.060
G0 X129.488 Y99.934
G0 X128.460 Y98.681
;TYPE:SOLID-FILL
;WIDTH:0.560
G1 F1500 E15.2575
G1 F1101 X128.198 Y98.024 E15.3010
G1 X127.897 Y97.326 E15.3541
G1 F2400 E14.3541
G0 F6000 X126.777 Y96.998
;TYPE:SOLID-FILL
;WIDTH:0.560
G1 F1500 E15.3541
G1 F1101 X126.268 Y96.489 E15.4044
G0 F6000 X126.489 Y95.918
G1 F1101 X127.918 Y97.347 E15.5455
G0 F6000 X128.531 Y97.168
G1 F1101 X126.767 Y95.404 E15.7198
G0 F6000 X127.092 Y94.937
G1 F1101 X128.789 Y96.634 E15.8874
G0 F6000 X129.132 Y96.186
G1 F1101 X127.465 Y94.518 E16.0521
G0 F6000 X127.881 Y94.142
G1 F1101 X129.563 Y95.824 E16.2183
G0 F6000 X130.092 Y95.562
G1 F1101 X128.342 Y93.811 E16.3912
G0 F6000 X128.851 Y93.528
G1 F1101 X130.348 Y95.025 E16.5390
G1 F2400 E15.5390
G0 F6000 X129.982 Y93.868
G1 F1500 E16.5390
G1 F1101 X129.414 Y93.299 E16.5952
G1 F2400 E15.5952
G0 F6000 X130.326 Y95.003
;TYPE:SOLID-FILL
;WIDTH:0.560
G1 F1500 E16.5952
G1 F1101 X130.930 Y95.212 E16.6327
G1 X131.540 Y95.425 E16.6778
G0 F6000 X131.699 Y94.793
;TYPE:SOLID-FILL
;WIDTH:0.560
G1 F1101 X134.224 Y97.318 E16.9272
G0 F6000 X134.711 Y97.012
G1 F1101 X131.981 Y94.283 E17.1968
G0 F6000 X131.921 Y93.431
G1 F1101 X135.567 Y97.076 E17.5569
G0 F6000 X135.696 Y96.413
G1 F1101 X132.577 Y93.295 E17.8649
G1 F2400 E16.8649
G0 F6000 X133.568 Y97.453
;TYPE:SOLID-FILL
;WIDTH:0.560
G1 F1500 E17.8649
G1 F1101 X133.784 Y98.065 E17.9035
G1 X134.107 Y98.785 E17.9586
;PRINTING: NON-OBJECT
;PRINTING_ID: -1
G1 F2400 E16.9586
G0 F6000 X132.077 Y98.140
;TYPE:SUPPORT
;WIDTH:0.560
G1 F1500 E17.9586
G1 F1101 X131.597 Y98.619 E18.0060
G1 X130.091 Y98.619 E18.1111
G1 X129.981 Y98.395 E18.1286
G1 X129.972 Y98.360 E18.1311
G1 X131.360 Y96.972 E18.2682
;PRINTING_TIME: 20
;REMAINING_TIME: 235
;LAYER:1
;Z:0.550
;HEIGHT:0.250
M106 S255
;PRINTING: fitting_for_dc_motor_shaft.STL
;PRINTING_ID: 0
G1 F2400 E17.2682
G0 F300 Z0.550
G0 F6000 X131.786 Y95.767
G0 X131.800 Y93.970
G0 X131.705 Y94.000
;TYPE:WALL-OUTER
;WIDTH:0.400
G1 F1500 E18.2682
G1 F600 X131.643 Y93.714 E18.2804
G1 X131.512 Y93.520 E18.2901
G1 X131.410 Y93.431 E18.2957
G1 X131.206 Y93.328 E18.3052
G1 X130.970 Y93.297 E18.3151
G1 X130.747 Y93.346 E18.3246
G1 X130.625 Y93.407 E18.3303
G1 X130.453 Y93.559 E18.3398
G1 X130.338 Y93.765 E18.3496
G1 X130.298 Y93.993 E18.3593
G1 X130.314 Y94.144 E18.3656
G1 X130.387 Y94.344 E18.3744
G1 X130.536 Y94.527 E18.3842
G1 X130.739 Y94.653 E18.3942
G1 X130.989 Y94.703 E18.4048
G1 X131.199 Y94.672 E18.4136
G1 X131.323 Y94.622 E18.4192
G1 X131.507 Y94.487 E18.4286
G1 X131.643 Y94.286 E18.4387
G1 X131.705 Y94.000 E18.4509
G1 F2400 E17.4509
G0 F6000 X131.800 Y93.970
G0 X131.594 Y92.838
G0 X131.601 Y92.739
G1 F1500 E18.4509
G1 F600 X132.259 Y92.852 E18.4787
G1 X132.798 Y93.014 E18.5021
G1 X133.317 Y93.234 E18.5255
G1 X133.811 Y93.507 E18.5490
G1 X134.272 Y93.832 E18.5724
G1 X134.697 Y94.203 E18.5959
G1 X135.080 Y94.618 E18.6193
G1 X135.416 Y95.071 E18.6428
G1 X135.702 Y95.555 E18.6662
G1 X135.965 Y96.158 E18.6935
G1 X136.110 Y96.596 E18.7127
G1 X136.232 Y97.157 E18.7366
G1 X136.292 Y97.718 E18.7600
G1 X136.292 Y98.282 E18.7835
G1 X136.232 Y98.843 E18.8069
