;Sliced by ideaMaker 4.3.2.6470, 2023-02-22 18:02:00 UTC-0600
;Dimension: 250.000 200.000 200.000 0.400
;Plate Shape: 0
;Origin Center: 0
;Extruder Offset #1: 25.000 0.000
;Filament Diameter #1: 1.750
;Filament Diameter #2: 1.750
;Filament Compensation #1: 100.00
;Filament Compensation #2: 90.00
;Filament Density #1: 1240.00
;Filament Density #2: 1240.00
;Filament Type #1: PLA
;Filament Type #2: 
;Filament Name #1: [CraftBot] PLA 1.75mm-copy
;Filament Name #2: 
;Firmware: Marlin
;Bounding Box: 115.433 146.561 82.433 113.567 0.000 38.050
;Model Gap: 0.000

M140 S65 ;start heating bed
M109 S215 ;start heating T0
M4002 P1 ; set heat program 1
M1203 A88 D66 F1200; set higher accel and decel
G28 X0 Y0 ; home XY
G28 Z0 ; home Z
G91 ; set relative movements
G0 F100 ; speed 100mm/sec
G0 E5 ; extrude 5mm of filament
G90 ;absolute movements
G0 X8 ; account for Craftbot offset
;end of Start GCode
;TOTAL_NUM: 1
;PRINTING_TIME: 0
;REMAINING_TIME: 2526
;LAYER:0
;Z:0.300
;HEIGHT:0.300
M106 S0
;PRINTING: NON-OBJECT
;PRINTING_ID: -1
G1 F2400 E-1.0000
G0 F6000 X118.507 Y88.668
G0 F300 Z0.300
G0 F6000 X119.190 Y88.076
;TYPE:SKIRT
;WIDTH:0.560
G1 F1500 E0.0000
G1 F1500 X119.294 Y87.857 E0.0169
G1 X119.489 Y87.538 E0.0430
G1 X119.848 Y87.079 E0.0837
G1 X120.298 Y86.656 E0.1269
G1 X120.748 Y86.347 E0.1650
G1 X121.088 Y86.180 E0.1915
G1 X121.237 Y85.972 E0.2093
G1 X121.521 Y85.657 E0.2390
G1 X122.027 Y85.224 E0.2855
G1 X122.484 Y84.941 E0.3230
G1 X122.901 Y84.753 E0.3550
G1 X123.295 Y84.635 E0.3837
G1 X123.477 Y84.457 E0.4015
G1 X123.853 Y84.168 E0.4346
G1 X124.436 Y83.835 E0.4815
G1 X124.937 Y83.644 E0.5190
G1 X125.459 Y83.525 E0.5563
G1 X125.732 Y83.499 E0.5755
G1 X125.943 Y83.356 E0.5933
G1 X126.390 Y83.125 E0.6284
G1 X127.026 Y82.902 E0.6755
G1 X127.554 Y82.806 E0.7130
G1 X128.011 Y82.783 E0.7450
G1 X128.333 Y82.806 E0.7675
G1 X128.557 Y82.704 E0.7847
G1 X129.031 Y82.554 E0.8194
G1 X129.617 Y82.449 E0.8610
G1 X130.154 Y82.433 E0.8985
G1 X130.691 Y82.493 E0.9363
G1 X131.010 Y82.573 E0.9592
G1 X131.248 Y82.511 E0.9764
G1 X131.622 Y82.456 E1.0028
G1 X132.284 Y82.440 E1.0491
G1 X132.816 Y82.510 E1.0866
G1 X133.341 Y82.657 E1.1246
G1 X133.686 Y82.810 E1.1510
G1 X133.930 Y82.789 E1.1681
G1 X134.257 Y82.796 E1.1909
G1 X134.829 Y82.869 E1.2312
G1 X135.424 Y83.039 E1.2744
G1 X135.910 Y83.262 E1.3118
G1 X136.299 Y83.505 E1.3438
G1 X136.528 Y83.530 E1.3599
G1 X136.863 Y83.597 E1.3838
G1 X137.415 Y83.771 E1.4242
G1 X137.968 Y84.044 E1.4673
G1 X138.347 Y84.302 E1.4993
G1 X138.713 Y84.643 E1.5342
G1 X138.960 Y84.710 E1.5521
G1 X139.328 Y84.857 E1.5798
G1 X139.909 Y85.179 E1.6262
G1 X140.332 Y85.507 E1.6636
G1 X140.655 Y85.831 E1.6955
G1 X140.924 Y86.190 E1.7269
G1 X141.143 Y86.294 E1.7438
G1 X141.462 Y86.489 E1.7699
G1 X141.921 Y86.848 E1.8106
G1 X142.344 Y87.298 E1.8538
G1 X142.653 Y87.748 E1.8919
G1 X142.820 Y88.088 E1.9183
G1 X143.028 Y88.237 E1.9362
G1 X143.343 Y88.521 E1.9658
G1 X143.776 Y89.027 E2.0124
G1 X144.059 Y89.484 E2.0499
G1 X144.247 Y89.901 E2.0818
G1 X144.365 Y90.295 E2.1106
G1 X144.541 Y90.474 E2.1281
G1 X144.803 Y90.810 E2.1579
G1 X145.142 Y91.385 E2.2045
G1 X145.340 Y91.882 E2.2419
G1 X145.453 Y92.326 E2.2739
G1 X145.501 Y92.734 E2.3025
G1 X145.644 Y92.943 E2.3202
G1 X145.875 Y93.390 E2.3554
G1 X146.098 Y94.026 E2.4025
G1 X146.194 Y94.554 E2.4399
G1 X146.217 Y95.011 E2.4719
G1 X146.195 Y95.330 E2.4942
G1 X146.302 Y95.567 E2.5124
G1 X146.456 Y96.068 E2.5490
G1 X146.561 Y96.735 E2.5962
G1 X146.560 Y97.271 E2.6336
G1 X146.500 Y97.725 E2.6656
G1 X146.427 Y98.011 E2.6862
G1 X146.489 Y98.248 E2.7033
G1 X146.544 Y98.622 E2.7297
G1 X146.560 Y99.284 E2.7760
G1 X146.490 Y99.816 E2.8134
G1 X146.343 Y100.341 E2.8515
G1 X146.190 Y100.686 E2.8779
G1 X146.211 Y100.930 E2.8950
G1 X146.199 Y101.319 E2.9222
G1 X146.131 Y101.829 E2.9581
G1 X145.988 Y102.349 E2.9958
G1 X145.774 Y102.842 E3.0333
G1 X145.495 Y103.299 E3.0707
G1 X145.470 Y103.532 E3.0871
G1 X145.388 Y103.922 E3.1149
G1 X145.172 Y104.550 E3.1613
G1 X144.922 Y105.025 E3.1988
G1 X144.657 Y105.399 E3.2308
G1 X144.355 Y105.721 E3.2616
G1 X144.288 Y105.964 E3.2793
G1 X144.087 Y106.445 E3.3157
G1 X143.821 Y106.909 E3.3530
G1 X143.544 Y107.274 E3.3850
G1 X143.169 Y107.655 E3.4224
G1 X142.810 Y107.924 E3.4537
G1 X142.706 Y108.143 E3.4706
G1 X142.472 Y108.518 E3.5015
G1 X142.097 Y108.981 E3.5431
G1 X141.702 Y109.344 E3.5806
G1 X141.252 Y109.653 E3.6187
G1 X140.912 Y109.820 E3.6452
G1 X140.763 Y110.028 E3.6630
G1 X140.479 Y110.343 E3.6927
G1 X140.038 Y110.728 E3.7336
G1 X139.516 Y111.059 E3.7767
G1 X139.099 Y111.247 E3.8087
G1 X138.705 Y111.365 E3.8374
G1 X138.526 Y111.541 E3.8549
G1 X138.190 Y111.803 E3.8847
G1 X137.689 Y112.106 E3.9256
G1 X137.118 Y112.340 E3.9687
G1 X136.674 Y112.453 E4.0007
G1 X136.266 Y112.501 E4.0294
G1 X136.057 Y112.644 E4.0471
G1 X135.610 Y112.875 E4.0822
G1 X134.974 Y113.098 E4.1293
G1 X134.446 Y113.194 E4.1668
G1 X133.989 Y113.217 E4.1987
G1 X133.667 Y113.194 E4.2213
G1 X133.443 Y113.296 E4.2385
G1 X133.039 Y113.428 E4.2682
G1 X132.383 Y113.551 E4.3148
G1 X131.846 Y113.567 E4.3523
G1 X131.309 Y113.507 E4.3900
G1 X130.990 Y113.427 E4.4130
G1 X130.752 Y113.489 E4.4302
G1 X130.378 Y113.544 E4.4566
G1 X129.716 Y113.560 E4.5029
G1 X129.184 Y113.490 E4.5403
G1 X128.659 Y113.343 E4.5784
G1 X128.315 Y113.191 E4.6047
G1 X128.075 Y113.211 E4.6215
G1 X127.677 Y113.200 E4.6493
G1 X127.019 Y113.098 E4.6958
G1 X126.509 Y112.935 E4.7332
G1 X126.094 Y112.740 E4.7652
G1 X125.716 Y112.493 E4.7968
G1 X125.468 Y112.470 E4.8142
G1 X125.078 Y112.388 E4.8420
G1 X124.450 Y112.172 E4.8884
G1 X123.975 Y111.922 E4.9259
G1 X123.601 Y111.657 E4.9579
G1 X123.279 Y111.355 E4.9887
G1 X123.036 Y111.288 E5.0063
G1 X122.555 Y111.087 E5.0428
G1 X122.091 Y110.821 E5.0801
G1 X121.726 Y110.544 E5.1121
G1 X121.345 Y110.169 E5.1495
G1 X121.076 Y109.810 E5.1808
G1 X120.857 Y109.706 E5.1977
G1 X120.482 Y109.472 E5.2286
G1 X120.019 Y109.097 E5.2702
G1 X119.656 Y108.702 E5.3077
G1 X119.347 Y108.252 E5.3458
G1 X119.180 Y107.912 E5.3723
G1 X118.972 Y107.763 E5.3901
G1 X118.657 Y107.479 E5.4198
G1 X118.272 Y107.038 E5.4606
G1 X117.941 Y106.516 E5.5038
G1 X117.753 Y106.099 E5.5358
G1 X117.635 Y105.705 E5.5645
G1 X117.457 Y105.523 E5.5823
G1 X117.168 Y105.147 E5.6154
G1 X116.870 Y104.639 E5.6565
G1 X116.644 Y104.063 E5.6998
G1 X116.525 Y103.541 E5.7371
G1 X116.499 Y103.268 E5.7563
G1 X116.356 Y103.057 E5.7741
G1 X116.125 Y102.610 E5.8093
G1 X115.902 Y101.974 E5.8563
G1 X115.806 Y101.446 E5.8938
G1 X115.783 Y100.989 E5.9258
G1 X115.806 Y100.667 E5.9483
G1 X115.704 Y100.443 E5.9655
G1 X115.572 Y100.039 E5.9952
G1 X115.449 Y99.383 E6.0418
G1 X115.433 Y98.846 E6.0793
G1 X115.493 Y98.309 E6.1171
G1 X115.573 Y97.990 E6.1400
G1 X115.511 Y97.752 E6.1572
G1 X115.456 Y97.378 E6.1836
G1 X115.440 Y96.716 E6.2299
G1 X115.510 Y96.184 E6.2674
G1 X115.657 Y95.659 E6.3054
G1 X115.810 Y95.314 E6.3318
G1 X115.789 Y95.066 E6.3492
G1 X115.806 Y94.620 E6.3804
G1 X115.886 Y94.091 E6.4177
G1 X116.039 Y93.576 E6.4552
G1 X116.262 Y93.090 E6.4926
G1 X116.505 Y92.701 E6.5246
G1 X116.530 Y92.472 E6.5407
G1 X116.613 Y92.075 E6.5691
G1 X116.802 Y91.509 E6.6107
G1 X117.044 Y91.032 E6.6481
G1 X117.302 Y90.653 E6.6801
G1 X117.643 Y90.287 E6.7151
G1 X117.710 Y90.040 E6.7329
G1 X117.857 Y89.672 E6.7606
G1 X118.135 Y89.160 E6.8013
G1 X118.507 Y88.668 E6.8444
G1 X118.831 Y88.345 E6.8763
G1 X119.190 Y88.076 E6.9077
G0 F6000 X119.639 Y88.443
G1 F1500 X119.772 Y88.149 E6.9302
G1 X119.967 Y87.830 E6.9563
G1 X120.287 Y87.427 E6.9923
G1 X120.620 Y87.114 E7.0242
G1 X120.995 Y86.850 E7.0562
G1 X121.468 Y86.618 E7.0930
G1 X121.653 Y86.347 E7.1159
G1 X121.937 Y86.032 E7.1456
G1 X122.327 Y85.697 E7.1815
G1 X122.714 Y85.452 E7.2135
G1 X123.131 Y85.264 E7.2454
G1 X123.592 Y85.133 E7.2789
G1 X123.818 Y84.901 E7.3015
G1 X124.194 Y84.612 E7.3346
G1 X124.640 Y84.356 E7.3705
G1 X125.066 Y84.189 E7.4025
G1 X125.512 Y84.083 E7.4345
G1 X125.936 Y84.043 E7.4643
G1 X126.200 Y83.853 E7.4870
G1 X126.647 Y83.622 E7.5221
G1 X127.132 Y83.452 E7.5580
G1 X127.582 Y83.365 E7.5900
G1 X128.039 Y83.342 E7.6220
G1 X128.437 Y83.377 E7.6499
G1 X128.731 Y83.236 E7.6727
G1 X129.135 Y83.104 E7.7024
G1 X129.640 Y83.009 E7.7383
G1 X130.098 Y82.990 E7.7703
G1 X130.554 Y83.036 E7.8023
G1 X131.018 Y83.153 E7.8357
G1 X131.329 Y83.065 E7.8583
G1 X131.703 Y83.010 E7.8847
G1 X132.217 Y82.996 E7.9206
G1 X132.672 Y83.051 E7.9526
G1 X133.114 Y83.169 E7.9846
G1 X133.594 Y83.382 E8.0212
G1 X133.918 Y83.349 E8.0440
G1 X134.245 Y83.356 E8.0668
G1 X134.755 Y83.424 E8.1028
G1 X135.195 Y83.550 E8.1347
G1 X135.613 Y83.737 E8.1667
G1 X136.002 Y83.980 E8.1988
G1 X136.091 Y84.055 E8.2069
G1 X136.418 Y84.079 E8.2298
G1 X136.753 Y84.146 E8.2537
G1 X137.243 Y84.304 E8.2896
G1 X137.653 Y84.507 E8.3216
G1 X138.032 Y84.765 E8.3536
G1 X138.434 Y85.150 E8.3925
G1 X138.752 Y85.230 E8.4154
G1 X139.120 Y85.377 E8.4431
G1 X139.570 Y85.625 E8.4789
G1 X139.935 Y85.902 E8.5109
G1 X140.258 Y86.226 E8.5429
G1 X140.557 Y86.639 E8.5785
G1 X140.851 Y86.772 E8.6010
G1 X141.170 Y86.967 E8.6272
G1 X141.573 Y87.287 E8.6631
G1 X141.886 Y87.620 E8.6950
G1 X142.150 Y87.995 E8.7271
G1 X142.382 Y88.468 E8.7639
G1 X142.653 Y88.653 E8.7868
G1 X142.968 Y88.937 E8.8164
G1 X143.303 Y89.327 E8.8523
G1 X143.548 Y89.714 E8.8843
G1 X143.736 Y90.131 E8.9162
G1 X143.867 Y90.592 E8.9497
G1 X144.099 Y90.818 E8.9723
G1 X144.361 Y91.154 E9.0021
G1 X144.624 Y91.597 E9.0381
G1 X144.797 Y92.020 E9.0700
G1 X144.910 Y92.464 E9.1020
G1 X144.959 Y92.939 E9.1354
G1 X145.147 Y93.200 E9.1578
G1 X145.378 Y93.647 E9.1930
G1 X145.548 Y94.132 E9.2289
G1 X145.635 Y94.582 E9.2609
G1 X145.658 Y95.039 E9.2928
G1 X145.623 Y95.435 E9.3206
G1 X145.767 Y95.732 E9.3437
G1 X145.921 Y96.233 E9.3803
G1 X146.001 Y96.740 E9.4161
G1 X146.005 Y97.198 E9.4481
G1 X145.945 Y97.652 E9.4801
G1 X145.846 Y98.012 E9.5062
G1 X145.935 Y98.329 E9.5292
G1 X145.990 Y98.703 E9.5556
G1 X146.004 Y99.217 E9.5915
G1 X145.949 Y99.672 E9.6235
G1 X145.831 Y100.114 E9.6555
G1 X145.618 Y100.594 E9.6921
G1 X145.651 Y100.918 E9.7149
G1 X145.644 Y101.245 E9.7377
G1 X145.576 Y101.755 E9.7737
G1 X145.450 Y102.195 E9.8056
G1 X145.263 Y102.613 E9.8376
G1 X145.020 Y103.002 E9.8697
G1 X144.946 Y103.090 E9.8777
G1 X144.922 Y103.417 E9.9006
G1 X144.840 Y103.807 E9.9284
G1 X144.674 Y104.294 E9.9644
G1 X144.465 Y104.701 E9.9963
G1 X144.200 Y105.075 E10.0283
G1 X143.849 Y105.439 E10.0636
G1 X143.770 Y105.752 E10.0862
G1 X143.599 Y106.171 E10.1178
G1 X143.375 Y106.570 E10.1498
G1 X143.098 Y106.935 E10.1818
G1 X142.774 Y107.258 E10.2137
G1 X142.361 Y107.557 E10.2493
G1 X142.228 Y107.851 E10.2719
G1 X142.033 Y108.170 E10.2980
G1 X141.713 Y108.573 E10.3339
G1 X141.380 Y108.886 E10.3659
G1 X141.005 Y109.150 E10.3979
G1 X140.532 Y109.382 E10.4347
G1 X140.347 Y109.653 E10.4576
G1 X140.063 Y109.968 E10.4872
G1 X139.673 Y110.303 E10.5231
G1 X139.286 Y110.548 E10.5551
G1 X138.869 Y110.736 E10.5871
G1 X138.408 Y110.867 E10.6205
G1 X138.182 Y111.099 E10.6432
G1 X137.846 Y111.361 E10.6729
G1 X137.403 Y111.624 E10.7089
G1 X136.980 Y111.797 E10.7408
G1 X136.536 Y111.910 E10.7728
G1 X136.061 Y111.959 E10.8062
G1 X135.800 Y112.147 E10.8287
G1 X135.353 Y112.378 E10.8638
G1 X134.868 Y112.548 E10.8997
G1 X134.418 Y112.635 E10.9317
G1 X133.961 Y112.658 E10.9637
G1 X133.563 Y112.623 E10.9916
G1 X133.269 Y112.764 E11.0143
G1 X132.865 Y112.896 E11.0440
G1 X132.360 Y112.991 E11.0799
G1 X131.902 Y113.010 E11.1119
G1 X131.446 Y112.964 E11.1440
G1 X130.982 Y112.847 E11.1774
G1 X130.671 Y112.935 E11.1999
G1 X130.297 Y112.990 E11.2264
G1 X129.783 Y113.004 E11.2623
G1 X129.328 Y112.949 E11.2943
G1 X128.886 Y112.831 E11.3262
G1 X128.407 Y112.619 E11.3628
G1 X128.090 Y112.651 E11.3851
G1 X127.692 Y112.640 E11.4129
G1 X127.184 Y112.563 E11.4488
G1 X126.747 Y112.428 E11.4807
G1 X126.332 Y112.233 E11.5127
G1 X125.906 Y111.946 E11.5486
G1 X125.583 Y111.922 E11.5712
G1 X125.193 Y111.840 E11.5991
G1 X124.706 Y111.674 E11.6350
G1 X124.299 Y111.465 E11.6670
G1 X123.925 Y111.200 E11.6990
G1 X123.561 Y110.849 E11.7343
G1 X123.248 Y110.770 E11.7569
G1 X122.829 Y110.599 E11.7885
G1 X122.430 Y110.375 E11.8204
G1 X122.065 Y110.098 E11.8524
G1 X121.742 Y109.774 E11.8844
G1 X121.443 Y109.361 E11.9200
G1 X121.149 Y109.228 E11.9425
G1 X120.830 Y109.033 E11.9686
G1 X120.427 Y108.713 E12.0046
G1 X120.114 Y108.380 E12.0365
G1 X119.850 Y108.005 E12.0685
G1 X119.618 Y107.532 E12.1053
G1 X119.347 Y107.347 E12.1283
G1 X119.032 Y107.063 E12.1579
G1 X118.697 Y106.673 E12.1938
G1 X118.452 Y106.286 E12.2258
G1 X118.264 Y105.869 E12.2577
G1 X118.133 Y105.408 E12.2912
G1 X117.901 Y105.182 E12.3138
G1 X117.612 Y104.806 E12.3469
G1 X117.356 Y104.360 E12.3829
G1 X117.189 Y103.934 E12.4148
G1 X117.083 Y103.488 E12.4468
G1 X117.043 Y103.064 E12.4766
G1 X116.853 Y102.800 E12.4993
G1 X116.622 Y102.353 E12.5345
G1 X116.452 Y101.868 E12.5704
G1 X116.365 Y101.418 E12.6024
G1 X116.342 Y100.961 E12.6343
G1 X116.377 Y100.563 E12.6622
G1 X116.236 Y100.269 E12.6850
G1 X116.104 Y99.865 E12.7147
G1 X116.009 Y99.360 E12.7506
G1 X115.990 Y98.902 E12.7826
G1 X116.036 Y98.446 E12.8146
G1 X116.153 Y97.982 E12.8480
G1 X116.065 Y97.671 E12.8706
G1 X116.010 Y97.297 E12.8970
G1 X115.996 Y96.783 E12.9329
G1 X116.051 Y96.328 E12.9649
G1 X116.169 Y95.886 E12.9969
G1 X116.382 Y95.406 E13.0336
G1 X116.349 Y95.082 E13.0563
G1 X116.360 Y94.698 E13.0831
G1 X116.424 Y94.245 E13.1151
G1 X116.550 Y93.805 E13.1471
G1 X116.737 Y93.387 E13.1791
G1 X116.980 Y92.998 E13.2111
G1 X117.055 Y92.909 E13.2192
G1 X117.079 Y92.582 E13.2421
G1 X117.146 Y92.247 E13.2660
G1 X117.304 Y91.757 E13.3019
G1 X117.507 Y91.347 E13.3339
G1 X117.765 Y90.968 E13.3659
G1 X118.150 Y90.566 E13.4048
G1 X118.230 Y90.248 E13.4277
G1 X118.377 Y89.880 E13.4554
G1 X118.625 Y89.430 E13.4913
G1 X118.902 Y89.065 E13.5233
G1 X119.226 Y88.742 E13.5552
G1 X119.639 Y88.443 E13.5908
;PRINTING: wheel_for_flywheel.STL
;PRINTING_ID: 0
G1 F2400 E12.5908
G0 F6000 X129.364 Y107.302
;TYPE:WALL-OUTER
;WIDTH:0.560
G1 F1500 E13.5908
G1 F1500 X128.245 Y108.629 E13.7121
G1 X128.074 Y108.583 E13.7244
G1 X127.774 Y106.883 E13.8450
G1 X126.441 Y107.992 E13.9661
G1 X126.281 Y107.917 E13.9785
G1 X126.280 Y106.188 E14.0992
G1 X124.775 Y107.048 E14.2203
G1 X124.630 Y106.946 E14.2327
G1 X124.929 Y105.244 E14.3534
G1 X123.299 Y105.829 E14.4744
G1 X123.174 Y105.704 E14.4867
G1 X123.764 Y104.081 E14.6073
G1 X122.056 Y104.373 E14.7283
G1 X121.955 Y104.228 E14.7407
G1 X122.818 Y102.731 E14.8614
G1 X121.085 Y102.723 E14.9824
G1 X121.011 Y102.563 E14.9947
G1 X122.120 Y101.238 E15.1154
G1 X120.415 Y100.930 E15.2364
G1 X120.370 Y100.759 E15.2488
G1 X121.693 Y99.647 E15.3695
G1 X120.068 Y99.047 E15.4905
G1 X120.053 Y98.871 E15.5028
G1 X121.548 Y98.006 E15.6235
G1 X120.052 Y97.133 E15.7444
G1 X120.068 Y96.957 E15.7568
G1 X121.691 Y96.366 E15.8774
G1 X120.368 Y95.245 E15.9986
G1 X120.414 Y95.074 E16.0109
G1 X122.117 Y94.774 E16.1317
G1 X121.009 Y93.441 E16.2528
G1 X121.084 Y93.281 E16.2651
G1 X122.812 Y93.280 E16.3858
G1 X121.952 Y91.775 E16.5069
G1 X122.054 Y91.630 E16.5193
G1 X123.756 Y91.929 E16.6400
G1 X123.171 Y90.299 E16.7609
G1 X123.296 Y90.174 E16.7733
G1 X124.919 Y90.764 E16.8939
G1 X124.627 Y89.056 E17.0149
G1 X124.772 Y88.955 E17.0273
G1 X126.269 Y89.818 E17.1479
G1 X126.277 Y88.085 E17.2690
G1 X126.437 Y88.011 E17.2813
G1 X127.762 Y89.120 E17.4020
G1 X128.070 Y87.415 E17.5230
G1 X128.241 Y87.370 E17.5354
G1 X129.353 Y88.693 E17.6561
G1 X129.953 Y87.068 E17.7771
G1 X130.129 Y87.053 E17.7894
G1 X130.994 Y88.548 E17.9100
G1 X131.867 Y87.052 E18.0310
G1 X132.043 Y87.068 E18.0434
G1 X132.634 Y88.691 E18.1640
G1 X133.755 Y87.368 E18.2851
G1 X133.926 Y87.414 E18.2975
G1 X134.226 Y89.117 E18.4183
G1 X135.559 Y88.009 E18.5393
G1 X135.719 Y88.084 E18.5517
G1 X135.720 Y89.812 E18.6724
G1 X137.225 Y88.952 E18.7934
G1 X137.370 Y89.054 E18.8058
G1 X137.071 Y90.756 E18.9265
G1 X138.701 Y90.171 E19.0475
G1 X138.826 Y90.296 E19.0598
G1 X138.236 Y91.919 E19.1804
G1 X139.944 Y91.627 E19.3015
G1 X140.045 Y91.772 E19.3138
G1 X139.182 Y93.269 E19.4345
G1 X140.916 Y93.277 E19.5556
G1 X140.990 Y93.437 E19.5679
G1 X139.880 Y94.762 E19.6887
G1 X141.585 Y95.070 E19.8097
